X:47
T:The Last Straw
R:reel
C: 1981, 2010 L.E. McCullough
M:4/4
L:1/8
K:D
DE|:~F3A AFED|F~A3 B2fe|d~B3 ADFA|DEFD ~E2DE|
~F3A AFED|F~A3 B2de|f~B3 ~g3f|1edef d2DE:|2 edef d2 de|] 
|:f~B3 gBde|f~B3 ABde|f~B3 gBaB|gfed efde|
f~B3 gBde|f~B3 ABde|~f3g aAgA|1 fAfe dAde:|2 fAfe dADE|]
  


